X:19
T:Parson in the Sudds. Ru1.099, The
%%VWML:RutherfordVol1-2248-p50-0p50
Z:Transcription by Village Music Project, Steve Mansfield July 2015
F:http://www.village-music-project.org.uk/
F:http://www.vwml.org/record/RutherfordVol1/2248/p50
L:1/8
Q:1/4=100
K:G
f|g2dc|B2AG|FGAB|cAAf|
(g/f/e/f/ g)d|"tr"B2AG|FGAc|BGG:|
|:B|DGBG|AGBG|DGBG|cAAB|
cdef|gdcB|cAdc|BGG:|
W:the first Man sets to his Partner & turns the 2d.
W:Wo.|  The first Wo. does the same :| Cross
W:over 2 Cu. Lead up to the Top foot it & cast
W:off :||: Foot it Corners & turn :||: Lead out sides
W:& turn your Partner :|
|:
T:Sigh. Ru1.100, The
B:Rutherford's Country Dances Vol 1, 1756
Z:village music project, Ruairidh Greig July 2015
M:2/4
L:1/8
Q:1/4=80
K:Dm
dd dc/B/|{d}cB/A/ BG|dd d/g/^f/g/|d/c/B/A/G2:|
|:G/A/B/c/ d/B/A/G/|F/G/A/B/ c/A/G/F/|G/A/B/c/ d/g/^f/g/|d/c/B/A/G2:|
|:!wedge!B2z2|!wedge!c2z2|dd d/g/^f/g/|B/c/B/A/ G2:|
W:Cast off one Couple .| Cast up again :| The first
W:Man sets to the 2d. Wo. & turns .|. the first Wo. does
W:the same with the 2d. Man :||: Bow to the sides &
W:turn your Partner .|| Bow to the other sides & turn
W:your Partner :||
